X:1
T:Minuet in A-flat
T:Minuet in A-flat
T:K. 15ff (Anh. 109b Nr. 8)
T:W.A. Mozart
C:W.A. Mozart
%%score { ( 1 4 ) | ( 2 3 ) }
L:1/8
Q:1/4=114
M:3/4
K:Ab
V:1 treble nm="Piano" snm="Pno."
V:4 treble 
V:2 bass 
V:3 bass 
V:1
"^Minuet" e2 c2 d>f | e2 c2 d>f | e2 d2 c>d |{c} B6 | f2 e2 a>f | b2 e2 a>f | bg e2 T=d2 | e6 :: %8
 =A2 z2 z2 | [Bd]6 | [Bd]2 [Ac]2 [ca]>[Ac] | [Ac]2 [GB]2 z2 | c2 A2 d>B | e2 A2 d>B | ec A2 TG2 | %15
 A6 :| %16
V:2
 C2 A,2 B,>D | C2 A,2 B,>D | E,6 | E,6 | E,6 | E,6 | E,2 B,2 B,,2 | E,2 B,,2 E,,2 :: F,6 | %9
 B,CB,A,G,F, | E,2 A,2 =D,2 | E,2 E,=D,C,B,, | A,,6 | A,6 | A,2 E2 E,2 | A,2 E,2 A,,2 :| %16
V:3
 x6 | x6 | C2 B,2 A,>B, | G,6 | x6 | x6 | x6 | x6 :: x6 | x6 | x6 | x6 | x6 | x6 | x6 | x6 :| %16
V:4
 x6 | x6 | x6 | x6 | x6 | x6 | x6 | x6 :: f_gfedc | x6 | x6 | x6 | x6 | x6 | x6 | x6 :| %16

